X:18037
T:Rakish Paddy
R:Reel
C:Trad.
O:Ireland
Z:Paul Hardy's Session Tunebook 2022 (see www.paulhardy.net). Creative Commons cc by-nc-sa licenced.
M:4/4
L:1/8
Q:1/4=130
K:Dmix
"C"c3B c2AB|cBAG EGFG|"D"Addc defe|dcAG FGAB|
"C"c3B c2AB|cBAG EFGE|"D"DEFG ABcA|dcAG FGAB:|
K:D
|:"Em"egg2 agg2|egg2 "A7"edcd|"Em"eaag bgag|"A7"eaag edcd|
"Em"egg2 agg2|"Em"efge defg|"D"afge fdec|"A7"dcAG "D"FDD2:|

